X:5104
T:Helen's Apology
M:4/4
R:Hornpipe
L:1/8
Q:120
C:Aidan Crossey
K:C
C>DCD FA G2|c>BcG AFDB,|C>DCD FA G2|c>BcG E2C2|
C>DCD FA G2|c>BcG AFDB,|C>DCD FA G2|c>BcG EC EF/G/||
c>BcB dede|c>BcB d2g2|c>BcB dede|g>fde cGAB|
c>BcB dede|c>BcB d2g2|c>BcB dede|g>fde cGFD||
